X:1
T:Title
%%score { ( 1 3 ) | 2 }
L:1/8
M:3/4
K:F
V:1 treble nm="Grand Piano"
V:3 treble 
V:2 bass 
V:1
 z2 z2[Q:1/4=100] [Ac]>[Bd] | [Ac]3 [FA] [GB]>[FA] | [FA]2 [EG]2 G>G | F3 F B>A |[M:2/4] [EG]4 | %5
[M:1/4] [Ec]>[Ed] |[M:3/4] c3 A B>A | [FA]2 [EG]2 [FG]>[FG] | [Ec]>[EG] [EG]2 [EA]2 |[M:2/4] F4 | %10
[M:1/4] F>F |[M:3/4] [Dd]3 [Fd] [FB]>[Fd] | [Fc]2 [CFA]2 [^CGA]>[CGA] | %13
 [DFA]3 [DFA] [DF=B]>[=B,Fd] |[M:5/8] [Ec]2- [B,Ec]3 |[M:1/4] c>d |[M:3/4] c3 A B>A | %17
 [DA]2 [DG]2 [Dd]>[Fd] | [Fc]>[FA] [EA]2 [EG]2 |[M:2/4] [A,CF]4 |] %20
V:2
 z2 z2 [F,C]>[F,C] | [F,C]3 [F,C] [E,C]>[F,C] | [C,C]2 [C,C]2 [B,CE]>[B,CE] | %3
 [A,C]3 [A,C] [G,CE]>[F,CF] |[M:2/4] [C,C]4 |[M:1/4] [C,B,]>[C,B,] | %6
[M:3/4] [F,A,F]3 [F,CF] [F,DF]>[F,CF] | [D,=B,]2 [D,B,]2 [D,B,]>[D,B,] | %8
 [C,B,]>[C,B,] [C,B,]2 [C,C]2 |[M:2/4] [F,A,]4 |[M:1/4] [F,A,_E]>[F,A,E] | %11
[M:3/4] [B,,B,]3 [B,,B,] [D,B,]>[B,,B,] | [F,A,]2 F,2 E,>E, | D,3 D, G,,>G,, |[M:5/8] C,-C,- C,3 | %15
[M:1/4] [F,A,F]>[F,B,F] |[M:3/4] [F,A,F]3 [F,CF] [F,DF]>[F,DF] | %17
 [B,,B,]2 [B,,B,]2 [=B,,_A,]>[B,,A,] | [C,A,]>[C,C] [C,C]2 [C,B,]2 |[M:2/4] [F,,F,]4 |] %20
V:3
 x6 | x6 | x6 | x6 |[M:2/4] x4 |[M:1/4] x2 |[M:3/4] x6 | x6 | x6 |[M:2/4] x4 |[M:1/4] x2 | %11
[M:3/4] x6 | x6 | x6 |[M:5/8] C2 z z2 |[M:1/4] x2 |[M:3/4] x6 | x6 | x6 |[M:2/4] x4 |] %20

